!!!!SEGMENT: pl-cz--i-49--002_malik-jan--schmolis-polka.krn
!!!cenid: 18xx:979
!!!COM: Malik, Jan
!!!COM-rismID: pe30023932
!!!CDT: ~1800-1866
!!!CNT: Czech
!!!OTL: Schmolis Polka
!!!PDT:
!!!AGN: Secular; Polka
!!!SMS-siglum: PL-CZ
!!!SMS-shelfmark: I-49
!!!SMS-shelfwork: 002 W
!!!SMS-variant:
!!!SMS-altvar:
!!!NIFC-rismSourceID: 300000814
!!!NIFC-islandoraID: pl-cz:31612
!!!URL-pdf-islandora: https://repozytorium.nifc.pl/islandora/object/pl-cz%3A31612/datastream/PDF/view
!!!URL-scan:
!!!ONB-nifc:
!!!AIN: 1 clars 1 cor 4 empty
!!!key:
**kern	**dynam	**kern	**dynam	**kern	**dynam	**kern	**dynam	**kern	**dynam	**kern	**dynam
*group2	*	*group2	*	*group2	*	*group2	*	*group1	*	*group1	*
*part6	*part6	*part5	*part5	*part4	*part4	*part3	*part3	*part2	*part2	*part1	*part1
*staff6	*	*staff5	*	*staff4	*	*staff3	*	*staff2	*	*staff1	*
*Iempty	*	*Iempty	*	*Iempty	*	*Icor	*	*Iempty	*	*Iclars	*
*I"Bombardon.	*	*I"Tromba 2. do in Es.	*	*I"Corno 2.do in F.	*	*I"Corno 1mo in Es.	*	*I"Clarinetto 2.do. in B.	*	*I"Clarinetto. in Es.	*
*I'[Bombarde]	*	*I'[Tr 2 in Es.]	*	*I'[Cor 2 in F]	*	*I'[Cor 1 in Es]	*	*I'[Cl 2 in B]	*	*I'[Cl 1]	*
*clefF4	*	*clefG2	*	*clefG2	*	*clefG2	*	*clefG2	*	*clefG2	*
*	*	*ITrd4c7	*	*ITrd4c7	*	*ITrd4c7	*	*ITrd1c2	*	*ITrd4c7	*
*k[b-]	*	*k[b-]	*	*k[b-]	*	*k[b-]	*	*k[b-]	*	*k[b-]	*
*F:	*	*	*	*	*	*	*	*F:	*	*	*
*M2/4	*	*M2/4	*	*M2/4	*	*M2/4	*	*M2/4	*	*M2/4	*
=1	=1	=1	=1	=1	=1	=1	=1	=1	=1	=1	=1
!	!	!LO:TX:a:t=1	!	!	!	!	!	!	!	!	!
!	!	!LO:TX:a:t=in F	!	!	!	!LO:TX:a:t=in F.	!	!	!	!	!
.	.	.	.	.	.	.	.	(8qdd/	p	8qdd/	.
8C/	p	2r	.	8r	.	8r	p	(>16cc\LL)	.	(>16cc\LL	.
.	.	.	.	.	.	.	.	16bX\J)	.	16bX\J	.
8r	.	.	.	8c/	p	8g\	.	8cc'>\J	.	8cc\J)	.
.	.	.	.	.	.	.	.	8qdd/	.	8qdd/	.
8C/	.	.	.	8r	.	8r	.	(>16cc\LL	.	16cc\LL	.
.	.	.	.	.	.	.	.	16b\J)	.	16b\J	.
8r	.	.	.	8c/	.	8g\	.	8cc'>\J	.	8cc\J	.
=2	=2	=2	=2	=2	=2	=2	=2	=2	=2	=2	=2
!!mixed beam:problem
!	!	!	!	!	!	!	!	!LO:TX:t=P:problem=mixed beam	!	!	!
.	.	.	.	.	.	.	.	8qee/	.	8qee/	.
!	!	!	!LO:DY:rj	!	!	!	!	!	!	!	!
8F\	.	8A^>/L	p	8r	.	8r	.	8ff^<\L	.	8ff'>^<\L	.
*	*	*	*	*tremolo	*	*	*	*	*	*	*
*	*	*	*	*	*	*tremolo	*	*	*	*	*
8r	.	8A/	.	8f\L	.	8a\L	.	8f/J	.	8f'>\J	.
.	.	.	.	.	.	.	.	8qg/	.	8qg/	.
4r	.	8A/J	.	8f\	.	8a\	.	(<16f/LL	.	16f\LL	.
.	.	.	.	.	.	.	.	16e/J)	.	16e\J	.
.	.	8r	.	8f\J	.	8a\J	.	8f'</J	.	8f\J	.
*	*	*	*	*Xtremolo	*	*Xtremolo	*	*	*	*	*
=3	=3	=3	=3	=3	=3	=3	=3	=3	=3	=3	=3
!	!	!LO:TX:a:t=1	!	!	!	!	!	!	!	!	!
.	.	.	.	.	.	.	.	8qdd/	.	8qdd/	.
8C/	.	2r	.	8r	.	8r	.	(>16cc\LL	.	(>16cc\LL	.
.	.	.	.	.	.	.	.	16bX\J)	.	16bX\J)	.
8r	.	.	.	8e\	.	8g\	.	8cc'>\J	.	8cc'>\J	.
8GG/	.	.	.	8r	.	8r	.	16ee'>\LL	.	16e'>\LL	.
.	.	.	.	.	.	.	.	16g'>\J	.	16g'>\J	.
8r	.	.	.	8c/	.	8g\	.	8b-'>\J	.	8b-'>\J	.
=4	=4	=4	=4	=4	=4	=4	=4	=4	=4	=4	=4
!LO:N:vis=4	!	!	!	!	!	!	!	!	!	!	!
.	.	.	.	.	.	.	.	.	.	8qb-/	.
8FF/	.	8A/L	.	8r	.	8r	.	8cc'>\L	.	8a\L	.
*	*	*	*	*tremolo	*	*tremolo	*	*	*	*	*
8r	.	8A/	.	8A/L	.	8f\L	.	8a'>\J	.	8f\J	.
.	.	.	.	.	.	.	.	8qb-/	.	8qg/	.
4r	.	8A/J	.	8A/	.	8f\	.	(>16a\LL	.	16f'>\LL	.
.	.	.	.	.	.	.	.	16g#X\J)	.	16e'>\J	.
.	.	8r	.	8A/J	.	8f\J	.	8a'>\J	.	8f'>\J	.
*	*	*	*	*Xtremolo	*	*Xtremolo	*	*	*	*	*
=5	=5	=5	=5	=5	=5	=5	=5	=5	=5	=5	=5
!	!	!LO:TX:a:t=1	!	!	!	!	!	!	!	!	!
.	.	.	.	.	.	.	.	8qdd/	.	8qdd/	.
8C/	.	2r	.	8r	.	8r	.	16cc\LL	.	(>16cc\LL	.
.	.	.	.	.	.	.	.	16bX\J	.	16bX\J)	.
8r	.	.	.	8c/	.	8g\	.	8cc\J	.	8cc'>\J	.
*	*	*	*	*	*	*	*	*rep	*	*	*
.	.	.	.	.	.	.	.	8qdd/	.	8qdd/	.
8C/	.	.	.	8r	.	8r	.	16cc\LL	.	(>16cc\LL	.
.	.	.	.	.	.	.	.	16b\J	.	16b\J)	.
8r	.	.	.	8c/	.	8g\	.	8cc\J	.	8cc'>\J	.
=6	=6	=6	=6	=6	=6	=6	=6	=6	=6	=6	=6
!!mixed beam:problem
!	!	!	!	!	!	!	!	!LO:TX:t=P:problem=mixed beam	!	!	!
.	.	.	.	.	.	.	.	8qee/	.	8qee/	.
8F\	.	8A^>/L	.	8r	.	8r	.	8ff^<\L	.	8ff'>\L	.
*	*	*	*	*tremolo	*	*tremolo	*	*	*	*	*
8r	.	8A/	.	8f\L	.	8a\L	.	8f/J	.	8f'>\J	.
.	.	.	.	.	.	.	.	8qg/	.	8qg/	.
4r	.	8A/J	.	8f\	.	8a\	.	16f/LL	.	16f'>\LL	.
.	.	.	.	.	.	.	.	16e/J	.	16e'>\J	.
.	.	8r	.	8f\J	.	8a\J	.	8f/J	.	8f'>\J	.
*	*	*	*	*Xtremolo	*	*Xtremolo	*	*	*	*	*
!	!	!	!	!	!	!	!	!LO:LB:g=original	!	!LO:LB:g=original	!
=7	=7	=7	=7	=7	=7	=7	=7	=7	=7	=7	=7
.	.	.	.	.	.	.	.	(<8qdd/	.	8qdd/	.
8C/	.	8r	.	8r	.	8r	.	(>16cc\LL)	.	(>16cc\LL	.
.	.	.	.	.	.	.	.	16bX\J)	.	16bX\J)	.
8r	.	8E/	.	8c/	.	8g\	.	8cc'>\J	.	8cc'>\J	.
8C/	.	8r	.	8r	.	8r	.	(>16ee\LL	.	(>16e\LL	.
.	.	.	.	.	.	.	.	16ff\J)	.	16dd\J)	.
8r	.	8E/	.	8c/	.	8g\	.	8b-'>\J	.	8cc'>\J	.
=8	=8	=8	=8	=8	=8	=8	=8	=8	=8	=8	=8
*	*	*head:invis	*	*	*	*	*	*	*	*	*
8FF/L	.	8F/L	.	8c\L	.	8f\L	.	8a\L	.	8f\L	.
*	*	*Xhead	*	*	*	*	*	*	*	*	*
8FF/J	.	8A/J	.	8f\J	.	8a\J	.	8cc\J	.	8a\J	.
!LO:N:vis=4	!	!	!	!	!	!	!	!	!	!LO:N:vis=4	!
*	*	*head:invis	*	*	*	*	*	*	*	*	*
8FF/	.	8F/	.	8c\	.	8f\	.	8a\	.	8f\	.
*	*	*Xhead	*	*	*	*	*	*	*	*	*
8r	.	8r	.	8r	.	8r	.	8r	.	8r	.
!LO:LB:g=original	!	!	!	!LO:LB:g=original	!	!LO:LB:g=original	!	!	!	!	!
=9:|!	=9:|!	=9:|!	=9:|!	=9:|!	=9:|!	=9:|!	=9:|!	=9:|!	=9:|!	=9:|!	=9:|!
!	!LO:DY:rj:t=fo	!	!	!	!LO:DY:rj:t=fo	!	!LO:DY:B:t=fo	!	!	!	!LO:DY:rj:t=fo
8GG/	f	8r	.	8r	f	8r	f	8g/L	f	8g\L	f
*	*	*head:invis	*	*	*	*	*	*	*	*	*
!	!	!	!LO:DY:rj	!	!	!	!	!	!	!	!
8r	.	8D/	f	8f\	.	8g\	.	16r	.	16r	.
.	.	.	.	.	.	.	.	16g/Jk	.	16g\Jk	.
*	*	*	*	*	*	*	*	*tremolo	*	*	*
*	*	*	*	*	*	*	*	*	*	*tremolo	*
!	!	!	!	!	!	!	!	!LO:TX:b:t=....	!	!LO:TX:a:t=....	!
8BBn/	.	8r	.	8r	.	8r	.	16g'</LL	.	16g'>\LL	.
.	.	.	.	.	.	.	.	16g'</	.	16g'>\	.
8r	.	8D/	.	8f\	.	8g\	.	16g'</	.	16g'>\	.
.	.	.	.	.	.	.	.	16g'</JJ	.	16g'>\JJ	.
*	*	*Xhead	*	*	*	*	*	*Xtremolo	*	*Xtremolo	*
=10	=10	=10	=10	=10	=10	=10	=10	=10	=10	=10	=10
8C/	.	8r	.	8r	.	8r	.	8g/	.	8g'>\L	.
*	*	*tremolo	*	*tremolo	*	*tremolo	*	*	*	*	*
8r	.	8E/L	.	8c/L	.	8g\L	.	8r	.	16a\L	.
.	.	.	.	.	.	.	.	.	.	16g\JJ	.
4r	.	8E/	.	8c/	.	8g\	.	(<16c/LL	.	(>16c\LL	.
.	.	.	.	.	.	.	.	16e/	.	16e\	.
.	.	8E/J	.	8c/J	.	8g\J	.	16g/	.	16g\)	.
.	.	.	.	.	.	.	.	16e/JJ)	.	16e\JJ	.
*	*	*Xtremolo	*	*Xtremolo	*	*Xtremolo	*	*	*	*	*
=11	=11	=11	=11	=11	=11	=11	=11	=11	=11	=11	=11
8GG/	.	8r	.	8r	.	8r	.	8g/L	.	8g\L	.
*	*	*head:invis	*	*	*	*	*	*	*	*	*
8r	.	8D/	.	8f\	.	8g\	.	16r	.	16r	.
.	.	.	.	.	.	.	.	16g/Jk	.	16g\Jk	.
*	*	*	*	*	*	*	*	*tremolo	*	*tremolo	*
!	!	!	!	!	!	!	!	!LO:TX:b:t=....	!	!LO:TX:a:t=....	!
8BBn/	.	8r	.	8r	.	8r	.	16g'</LL	.	16g'>\LL	.
.	.	.	.	.	.	.	.	16g'</	.	16g'>\	.
8r	.	8D/	.	8f\	.	8g\	.	16g'</	.	16g'>\	.
.	.	.	.	.	.	.	.	16g'</JJ	.	16g'>\JJ	.
*	*	*Xhead	*	*	*	*	*	*Xtremolo	*	*Xtremolo	*
=12	=12	=12	=12	=12	=12	=12	=12	=12	=12	=12	=12
8C/	.	8r	.	8r	.	8r	.	8gg\L	.	8ee'>\L	.
*	*	*tremolo	*	*tremolo	*	*tremolo	*	*	*	*	*
8r	.	8E/L	.	8c/L	.	8g\L	.	16cc\L	.	(>16cc\L	.
.	.	.	.	.	.	.	.	16g\JJ	.	16g\JJ)	.
4r	.	8E/	.	8c/	.	8g\	.	(<16c/LL	.	(>16c\LL	.
.	.	.	.	.	.	.	.	16e/	.	16e\	.
.	.	8E/J	.	8c/J	.	8g\J	.	16g/	.	16g\)	.
.	.	.	.	.	.	.	.	16e/JJ)	.	16e\JJ	.
*	*	*Xtremolo	*	*Xtremolo	*	*Xtremolo	*	*	*	*	*
=13	=13	=13	=13	=13	=13	=13	=13	=13	=13	=13	=13
4AA-X^>/	.	4E-X^>/	.	4c^>/	.	4e-X^<\	.	8cc\LL	.	8a-X\L	.
.	.	.	.	.	.	.	.	16r	.	16r	.
.	.	.	.	.	.	.	.	16cc\JJ	.	16a-\Jk	.
*	*	*	*	*	*	*	*	*tremolo	*	*tremolo	*
!	!	!	!	!	!	!	!	!LO:TX:a:t=....	!	!LO:TX:a:t=....	!
4AA-^>/	.	4E-^>/	.	4c^>/	.	4e-^<\	.	16cc'>\LL	.	16a-\LL	.
.	.	.	.	.	.	.	.	16cc'>\	.	16a-\	.
.	.	.	.	.	.	.	.	16cc'>\	.	16a-\	.
.	.	.	.	.	.	.	.	16cc'>\JJ	.	16a-\JJ	.
*	*	*	*	*	*	*	*	*Xtremolo	*	*Xtremolo	*
!	!	!	!	!	!	!	!	!LO:LB:g=original	!	!	!
=14	=14	=14	=14	=14	=14	=14	=14	=14	=14	=14	=14
8GG/	.	8r	.	8r	.	8r	.	8cc'</L	.	8cc\L	.
*	*	*tremolo	*	*tremolo	*	*tremolo	*	*	*	*	*
8r	.	8EnX/L	.	8c/L	.	8g\L	.	16g'</L	.	16g\L	.
.	.	.	.	.	.	.	.	16e'</JJ	.	16e\JJ	.
4r	.	8EnX/	.	8c/	.	8g\	.	(<16c/LL	.	(>16c\LL	.
.	.	.	.	.	.	.	.	16e/	.	16e\	.
.	.	8EnX/J	.	8c/J	.	8g\J	.	16g/	.	16g\	.
.	.	.	.	.	.	.	.	16e/JJ)	.	16e\JJ)	.
*	*	*Xtremolo	*	*Xrtremolo	*	*Xtremolo	*	*	*	*	*
!	!	!	!	!	!	!	!	!	!	!LO:LB:g=original	!
=15	=15	=15	=15	=15	=15	=15	=15	=15	=15	=15	=15
8BBn/	.	8r	.	8r	.	8r	.	8g\L	.	8g\L	f
*	*	*head:invis	*	*	*	*	*	*	*	*	*
8r	.	8D/	.	8f\	.	8g\	.	16r	.	16r	.
.	.	.	.	.	.	.	.	16gg\Jk	.	16gg\Jk	.
8GG/	.	8r	.	8r	.	8r	.	(>16gg\LL	.	(>16gg\LL	.
.	.	.	.	.	.	.	.	16ff\	.	16ff\	.
8r	.	8D/	.	8f\	.	8g\	.	16ee\)	.	16ee\	.
.	.	.	.	.	.	.	.	16dd\JJ	.	16dd\JJ)	.
*	*	*Xhead	*	*	*	*	*	*	*	*	*
=16	=16	=16	=16	=16	=16	=16	=16	=16	=16	=16	=16
*	*	*	*	*	*	*	*	*	*	*^	*
8C/	.	8E/L	.	8c/	.	8g\	.	8cc\	.	8cc\	8ryy	.
8r	.	16C/L	.	8r	.	8r	.	8r	.	8rdd	16c\LL	.
.	.	16C/JJ	.	.	.	.	.	.	.	.	16c\JJ	.
4r	.	8C/L	.	4r	p	4r	.	4r	.	4rdd	8c\L	.
.	.	8C/J	.	.	.	.	.	.	.	.	8c\J	.
!LO:LB:g=original	!	!	!	!	!	!	!	!	!	!	!	!
*	*	*	*	*	*	*	*	*	*	*v	*v	*
=17	=17	=17	=17	=17	=17	=17	=17	=17	=17	=17	=17
!	!	!LO:TX:a:t=1	!	!	!	!	!	!	!LO:DY:rj	!	!
.	.	.	.	.	.	.	.	(<8qdd/	p	8qdd/	p
!	!LO:DY:rj	!	!	!	!	!	!	!	!	!	!
8C/	p	2r	.	8r	.	8r	p	(>16cc\LL)	.	16cc\LL	.
.	.	.	.	.	.	.	.	16bX\J)	.	16bX\J	.
8r	.	.	.	8c/	.	8g\	.	8cc'>\J	.	8cc\J	.
*	*	*	*	*	*	*	*	*	*	*rep	*
.	.	.	.	.	.	.	.	(<8qdd/	.	8qdd/	.
8C/	.	.	.	8r	.	8r	.	(>16cc\LL)	.	16cc\LL	.
.	.	.	.	.	.	.	.	16b\J)	.	16b\J	.
8r	.	.	.	8c/	.	8g\	.	8cc'>\J	.	8cc\J	.
*	*	*	*	*	*	*	*	*	*	*Xrep	*
!	!	!LO:LB:g=original	!	!LO:LB:g=original	!	!	!	!	!	!	!
=18	=18	=18	=18	=18	=18	=18	=18	=18	=18	=18	=18
!!mixed beam:problem
!	!	!	!	!	!	!	!	!LO:TX:t=P:problem=mixed beam	!	!	!
.	.	.	.	.	.	.	.	8qee/	.	8qee/	.
!	!	!	!LO:DY:rj	!	!	!	!	!	!	!	!
8F\	.	8A^>/L	p	8r	.	8r	.	8ff'>^<\L	.	8ff'>^<\L	.
*	*	*	*	*tremolo	*	*tremolo	*	*	*	*	*
8r	.	8A/	.	8f\L	.	8a\L	.	8f'</J	.	8f'>\J	.
.	.	.	.	.	.	.	.	8qg/	.	8qg/	.
4r	.	8A/J	.	8f\	.	8a\	.	(<16f/LL	.	16f'>\LL	.
.	.	.	.	.	.	.	.	16e/J)	.	16e'>\J	.
.	.	8r	.	8f\J	.	8a\J	.	8f'</J	.	8f'>\J	.
*	*	*	*	*Xtremolo	*	*Xtremolo	*	*	*	*	*
=19	=19	=19	=19	=19	=19	=19	=19	=19	=19	=19	=19
!	!	!LO:TX:a:t=1	!	!	!	!	!	!	!	!	!
.	.	.	.	.	.	.	.	(<8qdd/	.	8qdd/	.
8C/	.	2r	.	8r	.	8r	.	(>16cc\LL)	.	(>16cc\LL	.
.	.	.	.	.	.	.	.	16bX\J)	.	16bX\J)	.
8r	.	.	.	8e\	.	8g\	.	8cc'>\J	.	8cc\J	.
8GG/	.	.	.	8r	.	8r	.	(>16ee\LL	.	16e'>\LL	.
.	.	.	.	.	.	.	.	16g\J)	.	16g'>\J	.
8r	.	.	.	8c/	.	8g\	.	8b-'>\J	.	8b-\J	.
!	!	!	!	!	!	!	!	!LO:LB:g=original	!	!	!
=20	=20	=20	=20	=20	=20	=20	=20	=20	=20	=20	=20
.	.	.	.	.	.	.	.	.	.	8qb-/	.
8FF/	.	8A/L	.	8r	.	8r	.	8cc'>\L	.	8a'>\L	.
*	*	*	*	*tremolo	*	*tremolo	*	*	*	*	*
8r	.	8A/	.	8A/L	.	8f\L	.	8a'>\J	.	8f'>\J	.
.	.	.	.	.	.	.	.	(<8qb-/	.	8qg/	.
4r	.	8A/J	.	8A/	.	8f\	.	(>16a\LL)	.	16f'>\LL	.
.	.	.	.	.	.	.	.	16g#X\J)	.	16e'>\J	.
.	.	8r	.	8A/J	.	8f\J	.	8a'>\J	.	8f'>\J	.
*	*	*	*	*Xtremolo	*	*Xtremolo	*	*	*	*	*
!	!	!	!	!	!	!LO:LB:g=original	!	!	!	!	!
=21	=21	=21	=21	=21	=21	=21	=21	=21	=21	=21	=21
!	!	!LO:TX:a:t=1	!	!	!	!	!	!	!	!	!
.	.	.	.	.	.	.	.	(<8qqdd/	.	8qdd/	.
8C/	.	2r	.	8r	.	8r	.	16cc\LL)	.	16cc\LL	.
.	.	.	.	.	.	.	.	16bX\J	.	16bX\J	.
8r	.	.	.	8c/	.	8g\	.	8cc\J	.	8cc\J	.
*	*	*	*	*	*	*	*	*rep	*	*rep	*
.	.	.	.	.	.	.	.	(8qqdd/	.	8qdd/	.
8C/	.	.	.	8r	.	8r	.	16cc\LL)	.	16cc\LL	.
.	.	.	.	.	.	.	.	16b\J	.	16b\J	.
8r	.	.	.	8c/	.	8g\	.	8cc\J	.	8cc\J	.
*	*	*	*	*	*	*	*	*Xrep	*	*Xrep	*
!	!	!	!	!	!	!	!	!	!	!LO:LB:g=original	!
=22	=22	=22	=22	=22	=22	=22	=22	=22	=22	=22	=22
!!mixed beam:problem
!	!	!	!	!	!	!	!	!LO:TX:t=P:problem=mixed beam	!	!	!
.	.	.	.	.	.	.	.	8qee/	.	8qee/	.
8F\	.	8A/L	.	8r	.	8r	.	8ff^<\L	.	8ff^<\L	.
*	*	*	*	*tremolo	*	*tremolo	*	*	*	*	*
8r	.	8A/	.	8f\L	.	8a\L	.	8f/J	.	8f\J	.
.	.	.	.	.	.	.	.	8qg/	.	8qg/	.
4r	.	8A/J	.	8f\	.	8a\	.	(<16f/LL	.	16f\LL	.
.	.	.	.	.	.	.	.	16e/J)	.	16e'>\J	.
.	.	8r	.	8f\J	.	8a\J	.	8f'</J	.	8f'>\J	.
*	*	*	*	*Xtremolo	*	*Xtremolo	*	*	*	*	*
=23	=23	=23	=23	=23	=23	=23	=23	=23	=23	=23	=23
.	.	.	.	.	.	.	.	(<8qdd/	.	8qdd/	.
8C/	.	8r	.	8r	.	8r	.	(>16cc\LL)	.	16cc\LL	.
.	.	.	.	.	.	.	.	16bX\J)	.	16bX\J	.
8r	.	8E/	.	8c/	.	8g\	.	8cc'>\J	.	8cc\J	.
8C/	.	8r	.	8r	.	8r	.	(>16ee\LL	.	(>16e\LL	.
.	.	.	.	.	.	.	.	16gg\JJ)	.	16dd\J)	.
8r	.	8E/	.	8c/	.	8g\	.	8b-'>\	.	8cc'>\J	.
=24	=24	=24	=24	=24	=24	=24	=24	=24	=24	=24	=24
*	*	*head:invis	*	*	*	*	*	*	*	*	*
8FF/L	.	8F/L	.	8c\L	.	8f\L	.	8a\L	.	8f\L	.
*	*	*Xhead	*	*	*	*	*	*	*	*	*
8FF/J	.	8A/J	.	8f\J	.	8a\J	.	8cc\J	.	8a\J	.
*	*	*head:invis	*	*	*	*	*	*	*	*	*
8FF/	.	8F/	.	8c\	.	8f\	.	8a\	.	8f\	.
*	*	*Xhead	*	*	*	*	*	*	*	*	*
8r	.	8r	.	8r	.	8r	.	8r	.	8r	.
!LO:LB:g=original	!	!LO:LB:g=original	!	!	!	!	!	!	!	!LO:LB:g=original	!
=25||	=25||	=25||	=25||	=25||	=25||	=25||	=25||	=25||	=25||	=25||	=25||
*k[b-e-]	*	*k[b-e-]	*	*k[b-e-]	*	*k[b-e-]	*	*k[b-e-]	*	*k[b-e-]	*
*clefF4	*	*clefG2	*	*clefG2	*	*clefG2	*	*clefG2	*	*clefG2	*
*M2/4	*	*M2/4	*	*M2/4	*	*M2/4	*	*M2/4	*	*M2/4	*
!LO:TX:a:t=Trio	!LO:DY:rj	!LO:TX:a:t=Trio	!	!LO:TX:a:t=Trio	!	!LO:TX:a:t=Trio	!	!LO:TX:a:t=Trio	!	!LO:TX:a:t=Trio	!
4BB-/	p	8r	p	8r	p	8r	p	8r	.	8r	.
*	*	*head:invis	*	*tremolo	*	*tremolo	*	*	*	*tremolo	*
!	!	!LO:TX:t=P:global:problem=nuty na 3 dodanej nie mają główek	!	!	!	!	!	!	!LO:DY:rj	!LO:TX:a:t=...	!
.	.	4.BB-/	.	8d/L	.	8f\L	.	8dd'>\L	p	8f'>\L	.
4r	.	.	.	8d/	.	8f\	.	8dd'>\	.	8f'>\	.
.	.	.	.	8d/J	.	8f\J	.	8dd'>\J	.	8f'>\J	.
*	*	*	*	*	*	*	*	*	*	*Xtremolo	*
!	!	!	!	!LO:LB:g=original	!	!	!	!	!	!	!
=26	=26	=26	=26	=26	=26	=26	=26	=26	=26	=26	=26
*	*	*rep	*	*	*	*rep	*	*	*	*	*
8BB-/	.	8r	.	8r	.	8r	.	8r	.	8r	.
8r	.	4.BB-/	.	8d/L	.	8f\L	.	8ff'>\L	.	8dd'>\L	.
8BB-/	.	.	.	8d/	.	8f\	.	8ee-'>\	.	8cc'>\	.
8r	.	.	.	8d/J	.	8f\J	.	8dd'>\J	.	8b-'>\J	.
*	*	*Xrep	*	*	*	*Xrep	*	*	*	*	*
=27	=27	=27	=27	=27	=27	=27	=27	=27	=27	=27	=27
*	*	*	*	*rep	*	*	*	*	*	*	*
8BB-/	.	8r	.	8r	.	8r	.	8r	.	8r	.
8r	.	8D/'<	.	8d/L	.	8f\L	.	8b-\	.	8d'>\	.
4r	.	8F'</L	.	8d/	.	8f\	.	8dd'>\L	.	8f'>\L	.
*	*	*Xhead	*	*	*	*	*	*	*	*	*
.	.	(<16G/L	.	8d/J	.	8f\J	.	(>16ee-\L	.	(>16g\L	.
.	.	16F/JJ)	.	.	.	.	.	16dd\JJ)	.	16f\JJ)	.
*	*	*	*	*Xrep	*	*	*	*	*	*	*
=28	=28	=28	=28	=28	=28	=28	=28	=28	=28	=28	=28
*	*	*	*	*	*	*rep	*	*	*	*	*
8FF/	.	(<8F/L	.	8r	.	8r	.	(>8bX\L	.	(<8d/L	.
8r	.	8E-X/J)	.	8e-X\L	.	8f\L	.	8cc\J)	.	8e-/J)	.
*	*	*	*	*	*	*	*	*	*	*tremolo	*
8FF/	.	4C^>/	.	8e-X\	.	8f\	.	4a^>\	.	8c/L	.
8r	.	.	.	8e-X\J	.	8f\J	.	.	.	8c/J	.
*	*	*	*	*	*	*Xrep	*	*	*	*Xtremolo	*
!	!	!	!	!	!	!	!	!	!	!LO:LB:g=original	!
=29	=29	=29	=29	=29	=29	=29	=29	=29	=29	=29	=29
*	*	*	*	*rep	*	*rep	*	*	*	*tremolo	*
8AA/	.	8r	.	8r	.	8r	.	8r	.	8r	.
*	*	*tremolo	*	*	*	*	*	*tremolo	*	*	*
!	!	!	!	!	!	!	!	!LO:TX:a:t=...	!	!LO:TX:a:t=...	!
8r	.	8AA/L	.	8e-X\L	.	8f\L	.	8cc'>\L	.	8e-'>\L	.
4r	.	8AA/	.	8e-X\	.	8f\	.	8cc'>\	.	8e-'>\	.
.	.	8AA/J	.	8e-X\J	.	8f\J	.	8cc'>\J	.	8e-'>\J	.
*	*	*Xtremolo	*	*Xrep	*	*Xrep	*	*Xtremolo	*	*Xtremolo	*
!	!	!	!	!	!	!LO:LB:g=original	!	!	!	!	!
=30	=30	=30	=30	=30	=30	=30	=30	=30	=30	=30	=30
*	*	*rep	*	*rep	*	*	*	*	*	*	*
8FF/	.	8r	.	8r	.	8r	.	8r	.	8r	.
8r	.	8AA/L	.	8e-X\L	.	8f\L	.	8ee-'>\L	.	8cc'>\L	.
8FF/	.	8AA/	.	8e-X\	.	8f\	.	8dd'>\	.	8b-'>\	.
8r	.	8AA/J	.	8e-X\J	.	8f\J	.	8cc'>\J	.	8a'>\J	.
*	*	*Xrep	*	*Xrep	*	*	*	*	*	*	*
=31	=31	=31	=31	=31	=31	=31	=31	=31	=31	=31	=31
*	*	*	*	*rep	*	*rep	*	*	*	*	*
8AA/	.	8r	.	8r	.	8r	.	8r	.	8r	.
8r	.	8C/	.	8e-X\L	.	8f\L	.	8a'>\	.	8c'>\	.
4r	.	(<8E-X'/L	.	8e-X\	.	8f\	.	8cc'>\L	.	8e-'>\L	.
*	*	*head:invis	*	*	*	*	*	*	*	*	*
.	.	(<16F/L)	.	8e-X\J	.	8f\J	.	(>16dd\L	.	(>16f\L	.
*	*	*Xhead	*	*	*	*	*	*	*	*	*
.	.	16E-/JJ)	.	.	.	.	.	16cc\JJ)	.	16e-\JJ)	.
*	*	*	*	*Xrep	*	*Xrep	*	*	*	*	*
=32	=32	=32	=32	=32	=32	=32	=32	=32	=32	=32	=32
*	*	*	*	*	*	*rep	*	*	*	*	*
8BB-/	.	(<8C#X/L	.	8r	.	8r	.	4b-^<\	.	(<8c#X/L	.
*	*	*head:invis	*	*	*	*	*	*	*	*	*
8r	.	8D/J)	.	8d/L	.	8f\L	.	.	.	8d/J)	.
*	*	*	*	*	*	*	*	*	*	*tremolo	*
8BB-/	.	4BB-/^>	.	8d/	.	8f\	.	4dd^<\	.	8B-/L	.
8r	.	.	.	8d/J	.	8f\J	.	.	.	8B-/J	.
*	*	*	*	*	*	*Xrep	*	*	*	*Xtremolo	*
!LO:LB:g=original	!	!	!	!	!	!	!	!	!	!	!
=33	=33	=33	=33	=33	=33	=33	=33	=33	=33	=33	=33
*	*	*	*	*	*	*rep	*	*	*	*	*
!	!LO:DY:rj	!	!	!	!	!	!	!	!	!	!
8BB-/	mf	8r	mf	8r	.	8r	.	8r	.	8r	.
*	*	*tremolo	*	*	*	*	*	*tremolo	*	*tremolo	*
!	!	!	!	!	!	!	!	!LO:TX:a:t=...	!	!	!
!	!	!	!	!	!	!	!	!LO:N:vis=4	!	!LO:TX:a:t=...	!
8r	.	8D/L	.	8d/L	.	8f\L	.	8ff'>\L	.	8dd'>\L	.
4r	.	8D/	.	8d/	.	8f\	.	8ff'>\	.	8dd'>\	.
.	.	8D/J	.	8d/J	.	8f\J	.	8ff'>\J	.	8dd'>\J	.
*	*	*Xhead	*	*	*	*Xrep	*	*Xtremolo	*	*Xtremolo	*
=34	=34	=34	=34	=34	=34	=34	=34	=34	=34	=34	=34
*	*	*rep	*	*rep	*	*rep	*	*	*	*	*
8BB-/	.	8r	.	8r	.	8r	.	8r	.	8r	.
8r	.	8D/L	.	8d/L	.	8f\L	.	8ddd'>\L	.	8ff'>\L	.
8BB-/	.	8D/	.	8d/	.	8f\	.	8ccc'>\	.	8ee-'>\	.
8r	.	8D/J	.	8d/J	.	8f\J	.	8bb-'>\J	.	8dd'>\J	.
*	*	*Xrep	*	*Xrep	*	*Xrep	*	*	*	*	*
!	!	!	!	!	!	!	!	!LO:LB:g=original	!	!	!
=35	=35	=35	=35	=35	=35	=35	=35	=35	=35	=35	=35
*	*	*rep	*	*rep	*	*rep	*	*	*	*	*
8BB-/	.	8r	.	8r	.	8r	.	8r	.	8r	.
8r	.	8D/L	.	8d/L	.	8f\L	.	8dd'>\	.	8b-'>\	.
4r	.	8D/	.	8d/	.	8f\	.	8ff'>\L	.	8dd'>\L	.
.	.	8D/J	.	8d/J	.	8f\J	.	(>16gg\L	.	(>16ee-\L	.
.	.	.	.	.	.	.	.	16ff\JJ)	.	16dd\JJ)	.
*	*	*Xrep	*	*Xrep	*	*Xrep	*	*	*	*	*
=36	=36	=36	=36	=36	=36	=36	=36	=36	=36	=36	=36
*	*	*Xtremolo	*	*	*	*rep	*	*	*	*	*
8FF/	.	8E-X/L	.	8r	.	8r	.	(>8dd\L	.	(>8bX\L	.
8r	.	8E-/J	.	8e-X\L	.	8f\L	.	8ee-\J)	.	8cc\J)	.
8FF/	.	4E-/	.	8e-X\	.	8f\	.	4cc^<\	.	4a\	.
8r	.	.	.	8e-X\J	.	8f\J	.	.	.	.	.
*	*	*	*	*	*	*Xrep	*	*	*	*	*
!	!	!LO:LB:g=original	!	!	!	!	!	!	!	!	!
=37	=37	=37	=37	=37	=37	=37	=37	=37	=37	=37	=37
*	*	*	*	*rep	*	*rep	*	*	*	*	*
8AA/	.	8r	.	8r	.	8r	.	8r	.	8r	.
*	*	*tremolo	*	*	*	*	*	*tremolo	*	*tremolo	*
!	!	!	!	!	!	!	!	!LO:TX:a:t=...	!	!LO:TX:a:t=...	!
8r	.	8C/L	.	8e-X\L	.	8f\L	.	8ee-'>\L	.	8cc'>\L	.
4r	.	8C/	.	8e-X\	.	8f\	.	8ee-'>\	.	8cc'>\	.
.	.	8C/J	.	8e-X\J	.	8f\J	.	8ee-'>\J	.	8cc'>\J	.
*	*	*	*	*Xrep	*	*Xrep	*	*Xtremolo	*	*Xtremolo	*
!	!	!	!	!	!	!	!	!	!	!LO:LB:g=original	!
=38	=38	=38	=38	=38	=38	=38	=38	=38	=38	=38	=38
*	*	*rep	*	*rep	*	*rep	*	*	*	*	*
8FF/	.	8r	.	8r	.	8r	.	8r	.	8r	.
8r	.	8C/L	.	8e-X\L	.	8f\L	.	8ccc'>\L	.	8ee-\L	.
8FF/	.	8C/	.	8e-X\	.	8f\	.	8bb-'>\	.	8dd\	.
8r	.	8C/J	.	8e-X\J	.	8f\J	.	8aa'>\J	.	8cc\J	.
*	*	*Xrep	*	*Xrep	*	*Xrep	*	*	*	*	*
=39	=39	=39	=39	=39	=39	=39	=39	=39	=39	=39	=39
8FF/	.	8r	.	8r	.	8r	.	8r	.	8r	.
8r	.	8E-X/L	.	8f\L	.	8a\L	.	8ee-'>\	.	8a\	.
4r	.	8E-X/	.	8f\	.	8a\	.	8ee-'>\L	.	8gg'>\L	.
.	.	8E-X/J	.	8f\J	.	8a\J	.	(>16ff\L	.	(>16ee-\L	.
.	.	.	.	.	.	.	.	16ee-\JJ)	.	16cc\JJ)	.
!	!	!	!	!LO:LB:g=original	!	!	!	!	!	!	!
*	*	*Xtremolo	*	*Xtremolo	*	*Xtremolo	*	*	*	*	*
=40	=40	=40	=40	=40	=40	=40	=40	=40	=40	=40	=40
8BB-/L	.	8D/L	.	8d/L	.	8f\L	.	(>8dd\L	.	8b-'>\L	.
8BB-/J	.	8D/J	.	8d/J	.	8f\J	.	8dd\J)	.	8b-\	.
8BB-/	.	8D/	.	8d/	.	8f\	.	8dd\	.	8b-\J	.
8r	.	8r	.	8r	.	8r	.	8r	.	8r	.
=41!|:	=41!|:	=41!|:	=41!|:	=41!|:	=41!|:	=41!|:	=41!|:	=41!|:	=41!|:	=41!|:	=41!|:
!	!LO:DY:rj:t=fo	!	!	!	!LO:DY:rj:t=for	!	!	!	!	!	!
8C/	f	8r	.	8r	f	8r	.	16cc\LL	.	16cc\LL	f
.	.	.	.	.	.	.	.	16dd\J	.	16dd\J	.
!	!	!	!LO:DY:rj:t=fo	!	!	!	!LO:DY:rj:t=fo	!	!	!	!
8r	.	8E/	f	8c/	.	8g\	f	8cc\J	.	8cc\J	.
.	.	.	.	.	.	.	.	(<8qeeX/	.	8qee/	.
8C/	.	8r	.	8r	.	8r	.	8dd\L)	.	8dd\L	.
.	.	.	.	.	.	.	.	(<8qee/	.	8qee/	.
8r	.	8E/	.	8c/	.	8g\	.	8dd\J)	.	8dd\J	.
!LO:LB:g=original	!	!	!	!	!	!	!	!	!	!	!
=42	=42	=42	=42	=42	=42	=42	=42	=42	=42	=42	=42
.	.	.	.	.	.	.	.	(<8qdd/	.	8qdd/	.
8F\	.	8r	.	8r	.	8r	.	8cc'>\L)	.	8cc'>\L	.
*	*	*	*	*tremolo	*	*tremolo	*	*	*	*	*
8r	.	16C/LL	.	8f\L	.	8a\L	.	(>16ff\L	.	(>16a\L	.
.	.	16C/JJ	.	.	.	.	.	16cc\JJ)	.	16f\JJ)	.
4r	.	8C/L	.	8f\	.	8a\	.	8a'>\L	.	8c/L	.
.	.	8C/J	.	8f\J	.	8a\J	.	8a'>\J	.	8c/J	.
*	*	*	*	*Xtremolo	*	*Xtremolo	*	*	*	*	*
!	!	!	!	!	!	!LO:LB:g=original	!	!	!	!	!
=43	=43	=43	=43	=43	=43	=43	=43	=43	=43	=43	=43
8C/	.	8r	.	8r	.	8r	.	8ccT>\L	.	8ccT>\L	.
8r	.	8E/	.	8c/	.	8g\	.	16g\Jk	.	16g\Jk	.
.	.	.	.	.	.	.	.	16r	.	16r	.
8C/	.	8r	.	8r	.	8r	.	8ccT>\L	.	8ccT>\L	.
8r	.	8E/	.	8c/	.	8g\	.	16g\Jk	.	16g\Jk	.
.	.	.	.	.	.	.	.	16r	.	16r	.
!	!	!	!	!	!	!	!	!LO:LB:g=original	!	!	!
=44	=44	=44	=44	=44	=44	=44	=44	=44	=44	=44	=44
!LO:TX:t=P:problem=fragment vide-retro. takt początkowy zapisany poprawnie poniżej	!	!	!	!	!	!	!	!	!	!	!
!LO:TX:a:t=Ø	!	!	!	!	!	!	!	!	!	!	!
8FF/	.	2ryy	.	2ryy	.	2ryy	.	2ryy	.	2ryy	.
8r	.	.	.	.	.	.	.	.	.	.	.
4r	.	.	.	.	.	.	.	.	.	.	.
=45	=45	=45	=45	=45	=45	=45	=45	=45	=45	=45	=45
!LO:TX:a:t=Ø	!	!	!	!	!	!	!	!	!	!	!
8FF/	.	8r	.	8r	.	8r	.	(>16a\LL	.	(>16a\LL	.
.	.	.	.	.	.	.	.	16c\	.	16c\	.
*	*	*tremolo	*	*tremolo	*	*tremolo	*	*	*	*	*
8r	.	8C/L	.	8A/L	.	8f\L	.	16f\	.	16f\	.
.	.	.	.	.	.	.	.	16a\JJ)	.	16a\JJ)	.
8FF/L	.	8C/	.	8A/	.	8f\	.	8cc'>\L	.	8c'</L	.
8FF/J	.	8C/J	.	8A/J	.	8f\J	.	8cc'>\J	.	8c'</J	.
*	*	*Xtremolo	*	*Xtremolo	*	*Xtremolo	*	*	*	*	*
=46	=46	=46	=46	=46	=46	=46	=46	=46	=46	=46	=46
!	!	!LO:TX:t=P:problem=zbędne powtórzenie 2 taktów	!	!	!	!	!	!	!	!	!
2ryy	.	8r	.	2ryy	.	2ryy	.	2ryy	.	2ryy	.
.	.	8E/	.	.	.	.	.	.	.	.	.
.	.	8r	.	.	.	.	.	.	.	.	.
.	.	8E/	.	.	.	.	.	.	.	.	.
=47	=47	=47	=47	=47	=47	=47	=47	=47	=47	=47	=47
2ryy	.	8r	.	2ryy	.	2ryy	.	2ryy	.	2ryy	.
*	*	*tremolo	*	*	*	*	*	*	*	*	*
.	.	8C/L	.	.	.	.	.	.	.	.	.
.	.	8C/	.	.	.	.	.	.	.	.	.
.	.	8C/J	.	.	.	.	.	.	.	.	.
*	*	*Xtremolo	*	*	*	*	*	*	*	*	*
=48	=48	=48	=48	=48	=48	=48	=48	=48	=48	=48	=48
8C/	.	8r	.	8r	.	8r	.	(>16cc\LL	.	(>16cc\LL	.
.	.	.	.	.	.	.	.	16dd\J)	.	16dd\J)	.
8r	.	8E/	.	8c/	.	8g\	.	8cc'>\J	.	8cc'>\J	.
.	.	.	.	.	.	.	.	(<8qeeX/	.	8qee/	.
8C/	.	8r	.	8r	.	8r	.	8dd\L)	.	8dd\L	.
.	.	.	.	.	.	.	.	(<8qee/	.	8qee/	.
8r	.	8E/	.	8c/	.	8g\	.	8dd\J)	.	8dd\J	.
!	!	!LO:LB:g=original	!	!	!	!	!	!	!	!LO:LB:g=original	!
=49	=49	=49	=49	=49	=49	=49	=49	=49	=49	=49	=49
.	.	.	.	.	.	.	.	8qdd/	.	8qdd/	.
8F\	.	8r	.	8r	.	8r	.	8cc\L	.	8cc'>\L	.
*	*	*	*	*tremolo	*	*tremolo	*	*	*	*	*
8r	.	16C/LL	.	8f\L	.	8a\L	.	(>16ff\L	.	(>16a\L	.
.	.	16C/JJ	.	.	.	.	.	16cc\JJ)	.	16f\JJ)	.
4r	.	8C/L	.	8f\	.	8a\	.	8a\L	.	8c/L	.
.	.	8C/J	.	8f\J	.	8a\J	.	8a\J	.	8c/J	.
*	*	*	*	*Xtremolo	*	*Xtremolo	*	*	*	*	*
=50	=50	=50	=50	=50	=50	=50	=50	=50	=50	=50	=50
8BB-/	.	8r	.	8r	.	8r	.	4b-^<\	.	8ddt>\L	.
8r	.	8D/	.	8c/	.	8g\	.	.	.	16g\Jk	.
.	.	.	.	.	.	.	.	.	.	16r	.
!LO:TX:t=P:problem=nieczytelna korekta C/BB-	!	!	!	!	!	!	!	!	!	!	!
8C/	.	8r	.	8r	.	8r	.	4g^<\	.	8eet>\L	.
8r	.	8E/	.	8c/	.	8g\	.	.	.	16cc\Jk	.
.	.	.	.	.	.	.	.	.	.	16r	.
!	!	!	!	!LO:LB:g=original	!	!	!	!	!	!	!
=51	=51	=51	=51	=51	=51	=51	=51	=51	=51	=51	=51
*tremolo	*	*	*	*	*	*	*	*	*	*	*
8FF/L	.	8F/L	.	8A/L	.	8f\L	.	8a\L	.	8ff\L	.
8FF/	.	8C/J	.	8A/J	.	8f\J	.	8a\J	.	8f\	.
8FF/J	.	8C/	.	8A/	.	8f\	.	8a\	.	8f\J	.
*Xtremolo	*	*	*	*	*	*	*	*	*	*	*
!	!	!	!	!	!	!	!	!LO:TX:t=P:problem=pojedyncza kreska taktowa	!	!	!
8r	.	8r	.	8r	.	8r	.	8r	.	8r	.
=52||	=52||	=52||	=52||	=52||	=52||	=52||	=52||	=52||	=52||	=52||	=52||
!	!	!	!LO:DY:rj	!	!LO:DY:rj	!	!	!	!LO:DY:rj	!	!LO:DY:rj
8F\	p	2C/	p	8r	p	8r	p	[>4f\	p	4F/	p
*	*	*	*	*tremolo	*	*tremolo	*	*	*	*	*
!	!	!	!	!	!	!LO:TX:t=P:problem=nieczytelny znak. Krzyżyk?	!	!	!	!	!
8r	.	.	.	8A/L	.	8e#X\L	.	.	.	.	.
4r	.	.	.	8A/	.	8e#X\	.	16f\LL]	.	(<16F/LL	.
.	.	.	.	.	.	.	.	(>16a\	.	16A/	.
.	.	.	.	8A/J	.	8e#X\J	.	16cc\	.	16c/	.
.	.	.	.	.	.	.	.	16gg\JJ)	.	16g/JJ)	.
=53	=53	=53	=53	=53	=53	=53	=53	=53	=53	=53	=53
8BB-/	.	4D/	.	8r	.	8r	.	(>4ff\	.	(>4f\	.
8r	.	.	.	8F/L	.	8d/L	.	.	.	.	.
!LO:TX:a:t=re	!	!	!	!	!	!	!	!	!	!	!
4r	.	4r	.	8F/	.	8d/	.	4b-\)	.	4b-\)	.
.	.	.	.	8F/J	.	8d/J	.	.	.	.	.
=54	=54	=54	=54	=54	=54	=54	=54	=54	=54	=54	=54
!LO:TX:b:t=tro:rj	!	!	!	!	!	!	!	!	!	!	!
8FF/	.	8E-X'</L	.	8r	.	8r	.	8ee-'>\L	.	8g'>\L	.
8r	.	8E-'</J	.	8A/L	.	8f\L	.	8ee-'>\J	.	8g'>\J	.
8FF/	.	16E-'</LL	.	8A/	.	8f\	.	16ee-'>\LL	.	16g'>\LL	.
*	*	*head:invis	*	*	*	*	*	*	*	*	*
.	.	16D'</J	.	.	.	.	.	16dd'>\J	.	16f'>\J	.
*	*	*Xhead	*	*	*	*	*	*	*	*	*
8r	.	8C'</J	.	8A/J	.	8f\J	.	8cc'>\J	.	8e-'>\J	.
=55	=55	=55	=55	=55	=55	=55	=55	=55	=55	=55	=55
*	*	*	*	*	*	*rep	*	*	*	*	*
8BB-/	.	(<4BB-/	.	8r	.	8r	.	(>4b-\	.	(>4d\	.
8r	.	.	.	8B-/L	.	8f\L	.	.	.	.	.
!!mixed beam:problem
!	!	!	!	!	!	!	!	!LO:TX:t=P:problem=mixed beam	!	!LO:TX:t=P:problem=mixed beam	!
8BB-/	.	8D/)	.	8B-/	.	8f\	.	8dd\L)	.	8f\L)	.
8r	.	8r	.	8B-/J	.	8f\J	.	8f/J	.	8F/J	.
*	*	*	*	*	*	*Xrep	*	*	*	*	*
!	!	!	!	!	!	!LO:LB:g=original	!	!LO:LB:g=original	!	!	!
=56	=56	=56	=56	=56	=56	=56	=56	=56	=56	=56	=56
8FF/	.	2C/	.	8r	.	8r	.	[>4f\	.	4F'</	.
8r	.	.	.	8A/L	.	8e-X\L	.	.	.	.	.
4r	.	.	.	8A/	.	8e-X\	.	16f\LL]	.	(<16F/LL	.
.	.	.	.	.	.	.	.	(>16a\	.	16A/	.
.	.	.	.	8A/J	.	8e-X\J	.	16cc\	.	16c/	.
.	.	.	.	.	.	.	.	16gg\JJ)	.	16f/JJ)	.
=57	=57	=57	=57	=57	=57	=57	=57	=57	=57	=57	=57
*	*	*head:invis	*	*	*	*	*	*	*	*	*
8BB-/	.	4D/	.	8r	.	8r	.	(>4ff^<\	.	(>4f\	.
8r	.	.	.	8B-/L	.	8d/L	.	.	.	.	.
4r	.	4r	.	8B-/	.	8d/	.	8b-\)	.	8b-\)	.
.	.	.	.	8B-/J	.	8d/J	.	8r	.	8r	.
*	*	*	*	*	*	*Xtremolo	*	*	*	*	*
*	*	*	*	*Xtremolo	*	*	*	*	*	*	*
!	!	!	!	!	!	!	!	!	!	!LO:LB:g=original	!
=58	=58	=58	=58	=58	=58	=58	=58	=58	=58	=58	=58
*	*	*	*	*	*	*	*	*	*	*tremolo	*
!	!	!	!	!	!	!	!	!	!LO:DY:B:t=fo	!LO:TX:a:t=....	!LO:DY:B:t=fo
8F\	.	16F/LL	.	8r	.	8r	.	4ee-\	f	16a\'>LL	f
.	.	16F/	.	.	.	.	.	.	.	16a'>\	.
8r	.	16F/	.	8e-X\	.	8f\	.	.	.	16a'>\	.
.	.	16F/JJ	.	.	.	.	.	.	.	16a'>\JJ	.
*	*	*tremolo	*	*	*	*	*	*	*	*Xtremolo	*
!	!	!LO:TX:b:t=....	!	!	!	!	!	!	!	!	!
8F\	.	16F'</LL	.	8r	.	8r	.	16ee-\LL	.	16a'>\LL	.
.	.	16F'</	.	.	.	.	.	16ee-\	.	16f'>\	.
8r	.	16F'</	.	8e-\	.	8f\	.	16ee-\	.	16g'>\	.
.	.	16F'</JJ	.	.	.	.	.	16ee-\JJ	.	16a'>\JJ	.
*	*	*Xtremolo	*	*	*	*	*	*	*	*	*
!	!	!LO:LB:g=original	!	!	!	!	!	!	!	!	!
=59	=59	=59	=59	=59	=59	=59	=59	=59	=59	=59	=59
*tremolo	*	*	*	*	*	*	*	*	*	*	*
8BB-/L	.	8D/L	.	8d/L	.	8f\L	.	8dd\L	.	8b-\L	.
8BB-/	.	8D/J	.	8d/J	.	8f\J	.	8dd\J	.	8b-\J	.
8BB-/J	.	8D/	.	8d/	.	8f\	.	8dd\	.	4b-\	.
*Xtremolo	*	*	*	*	*	*	*	*	*	*	*
!	!	!LO:TX:t=P:problem=nieczytelne J Sniehatter	!	!	!	!LO:TX:t=P:problem=nieczytelne J S---tter	!	!	!	!	!
8r	.	8r	.	8r	.	8r	.	8r	.	.	.
==	==	==	==	==	==	==	==	==	==	==	==
*-	*-	*-	*-	*-	*-	*-	*-	*-	*-	*-	*-
!!!system-decoration: [(g1)][(g2)]
!!!RDF**kern: > = above
!!!RDF**kern: < = below
!!!ENC: Marta Chmielewska
!!!END: 2020-08-12
!!!EED: Jędrzej Mróz
!!!ESR: 2021-10-29
!!!YEC: Copyright 2022 Narodowy Instytut Fryderyka Chopina (https://polishscores.org)
!!!YEM: Licence CC BY 4.0 (https://creativecommons.org/licenses/by/4.0)
